hero/solid/chat-bubble-left-right.svg

<svg width="24" height="24" viewBox="0 0 24 24" fill="none" xmlns="http://www.w3.org/2000/svg">
<path d="M4.91307 2.65823C6.9877 2.38888 9.10296 2.25 11.2503 2.25C13.3974 2.25 15.5124 2.38885 17.5869 2.65815C19.5091 2.90769 20.8783 4.51937 20.9923 6.38495C20.6665 6.27614 20.3212 6.20396 19.96 6.17399C18.5715 6.05874 17.1673 6 15.75 6C14.3326 6 12.9285 6.05874 11.54 6.17398C9.1817 6.36971 7.5 8.36467 7.5 10.6082V14.8937C7.5 16.5844 8.45468 18.1326 9.9328 18.8779L7.28033 21.5303C7.06583 21.7448 6.74324 21.809 6.46299 21.6929C6.18273 21.5768 6 21.3033 6 21V16.9705C5.63649 16.9316 5.27417 16.8887 4.91308 16.8418C2.90466 16.581 1.5 14.8333 1.5 12.8626V6.63738C1.5 4.66672 2.90466 2.91899 4.91307 2.65823Z" fill="#0F172A"/>
<path d="M15.75 7.5C14.3741 7.5 13.0114 7.55702 11.6641 7.66884C10.1248 7.7966 9 9.10282 9 10.6082V14.8937C9 16.4014 10.128 17.7083 11.6692 17.8341C12.9131 17.9357 14.17 17.9912 15.4384 17.999L18.2197 20.7803C18.4342 20.9948 18.7568 21.059 19.037 20.9429C19.3173 20.8268 19.5 20.5533 19.5 20.25V17.8601C19.6103 17.8518 19.7206 17.8432 19.8307 17.8342C21.372 17.7085 22.5 16.4015 22.5 14.8938V10.6082C22.5 9.10283 21.3752 7.79661 19.836 7.66885C18.4886 7.55702 17.1259 7.5 15.75 7.5Z" fill="#0F172A"/>
</svg>

<svg viewBox="0 0 24 24" xmlns="http://www.w3.org/2000/svg"><g><path d="M4.913 2.658c2.07-.27 4.19-.41 6.337-.41 2.14 0 4.26.13 6.337.4 1.92.25 3.29 1.86 3.4 3.727l0 0c-.34-.12-.69-.19-1.04-.22v-.001c-2.81-.24-5.62-.24-8.42 0 -2.36.19-4.04 2.19-4.04 4.43v4.28 0c-.01 1.67.93 3.21 2.43 3.98l-2.66 2.65v0c-.3.29-.77.29-1.07-.01 -.15-.15-.22-.34-.22-.53v-4.03l-.001 0c-.37-.04-.73-.09-1.09-.13 -2.01-.27-3.42-2.01-3.42-3.98V6.58c0-1.97 1.4-3.718 3.41-3.98Z"/><path d="M15.75 7.5c-1.38 0-2.74.05-4.086.16 -1.54.12-2.67 1.43-2.67 2.94v4.285c0 1.5 1.12 2.814 2.67 2.94 1.24.1 2.5.15 3.76.16l2.78 2.78v0c.29.29.76.29 1.06-.01 .14-.15.21-.34.21-.53v-2.39l.33-.03c1.54-.125 2.67-1.44 2.67-2.94v-4.29c0-1.51-1.125-2.82-2.67-2.94L19.8 7.63c-1.36-.12-2.73-.17-4.09-.17Z"/></g></svg>
